X: 4176
M: C|
L: 1/8
K: Em
(dc) |:\
[1 d^cdf (3(efg) (d=c) :|\
[2 d^cdf e/e/e e2 ||
|: gfef gbag | fdd^c dfaf |\
[1 gfef gbag | (fd) (3(d^cd) e2(ef) :|\
[2 bgaf gfed | (BA) (3(Bcd) e2 |]


